/JOB
//NAME FLAT
//POS
///NPOS 74,0,0,0,0,0
///TOOL 0
///USER 1
///POSTYPE USER
///RECTAN 
///RCONF 1,0,0,0,0,0,0,0,0,0,0,0,0,0,0,0,0,0,0,0,0,0,0,0
C00000=25.4,37.3,17.0,0,0,0
C00001=25.4,37.3,6.0,0,0,0
C00002=37.4,46.3,6.0,0,0,0
C00003=37.4,28.3,6.0,0,0,0
C00004=37.4,28.3,6.0,0,0,0
C00005=37.391,27.829,6.0,0,0,0
C00006=13.437,27.358,6.0,0,0,0
C00007=13.4,28.3,6.0,0,0,0
C00008=13.4,46.3,6.0,0,0,0
C00009=13.4,46.3,6.0,0,0,0
C00010=13.409,46.771,6.0,0,0,0
C00011=37.363,47.242,6.0,0,0,0
C00012=37.4,46.3,6.0,0,0,0
C00013=37.4,46.3,17.0,0,0,0
C00014=12.9,160.851,17.0,0,0,0
C00015=12.9,160.851,6.0,0,0,0
C00016=9.4,151.851,6.0,0,0,0
C00017=9.4,169.851,6.0,0,0,0
C00018=9.4,169.851,6.0,0,0,0
C00019=9.403,169.989,6.0,0,0,0
C00020=16.389,170.126,6.0,0,0,0
C00021=16.4,169.851,6.0,0,0,0
C00022=16.4,151.851,6.0,0,0,0
C00023=16.4,151.851,6.0,0,0,0
C00024=16.397,151.714,6.0,0,0,0
C00025=9.411,151.577,6.0,0,0,0
C00026=9.4,151.851,6.0,0,0,0
C00027=9.4,151.851,17.0,0,0,0
C00028=37.9,160.851,17.0,0,0,0
C00029=37.9,160.851,6.0,0,0,0
C00030=34.4,151.851,6.0,0,0,0
C00031=34.4,169.851,6.0,0,0,0
C00032=34.4,169.851,6.0,0,0,0
C00033=34.403,169.989,6.0,0,0,0
C00034=41.389,170.126,6.0,0,0,0
C00035=41.4,169.851,6.0,0,0,0
C00036=41.4,151.851,6.0,0,0,0
C00037=41.4,151.851,6.0,0,0,0
C00038=41.397,151.714,6.0,0,0,0
C00039=34.411,151.577,6.0,0,0,0
C00040=34.4,151.851,6.0,0,0,0
C00041=34.4,151.851,17.0,0,0,0
C00042=60.732,187.503,17.0,0,0,0
C00043=60.732,187.503,6.0,0,0,0
C00044=40.8,185.851,6.0,0,0,0
C00045=10.0,185.851,6.0,0,0,0
C00046=10.0,185.851,6.0,0,0,0
C00047=2.791,182.782,6.0,0,0,0
C00048=0.008,176.244,6.0,0,0,0
C00049=0.0,175.851,6.0,0,0,0
C00050=-0.0,130.011,6.0,0,0,0
C00051=3.0,128.511,6.0,0,0,0
C00052=-0.0,127.011,6.0,0,0,0
C00053=0.0,10.0,6.0,0,0,0
C00054=0.0,10.0,6.0,0,0,0
C00055=3.069,2.791,6.0,0,0,0
C00056=9.607,0.008,6.0,0,0,0
C00057=10.0,0.0,6.0,0,0,0
C00058=40.8,0.0,6.0,0,0,0
C00059=40.8,0.0,6.0,0,0,0
C00060=48.009,3.069,6.0,0,0,0
C00061=50.792,9.607,6.0,0,0,0
C00062=50.8,10.0,6.0,0,0,0
C00063=50.8,127.011,6.0,0,0,0
C00064=47.8,128.511,6.0,0,0,0
C00065=50.8,130.011,6.0,0,0,0
C00066=50.8,175.851,6.0,0,0,0
C00067=50.8,175.851,6.0,0,0,0
C00068=47.731,183.06,6.0,0,0,0
C00069=41.193,185.844,6.0,0,0,0
C00070=40.8,185.851,6.0,0,0,0
C00071=40.8,185.851,17.0,0,0,0
///POSTYPE PULSE
///PULSE
C00072=0,0,0,0,0,0
C00073=0,0,0,0,0,0
//INST
///DATE 2025/08/08 15:55
///ATTR SC,RW,RJ
////FRAME USER 1
///GROUP1 RB1
NOP
DOUT OT#(9) OFF
MOVJ C00073 VJ=10.0
DOUT OT#(9) OFF
TIMER T=2.00
MOVJ C00000 VJ=30.0
MOVJ C00001 VJ=30.0
DOUT OT#(9) ON
TIMER T=2.00
MOVL C00002 V=10.0 FINE=2
MOVL C00003 V=10.0 PL=1
MOVL C00004 V=10.0 PL=1
MOVL C00005 V=10.0 PL=1
MOVL C00006 V=10.0 FINE=2
DOUT OT#(9) OFF
TIMER T=2.00
MOVJ C00007 VJ=30.0
MOVJ C00008 VJ=30.0
MOVJ C00009 VJ=30.0
DOUT OT#(9) ON
TIMER T=2.00
MOVL C00010 V=10.0 FINE=2
MOVL C00011 V=10.0 PL=1
MOVL C00012 V=10.0 PL=1
MOVL C00013 V=10.0 PL=1
MOVL C00014 V=10.0 FINE=2
DOUT OT#(9) OFF
TIMER T=2.00
MOVJ C00015 VJ=30.0
MOVJ C00016 VJ=30.0
MOVJ C00017 VJ=30.0
DOUT OT#(9) ON
TIMER T=2.00
MOVL C00018 V=10.0 FINE=2
MOVL C00019 V=10.0 PL=1
MOVL C00020 V=10.0 PL=1
MOVL C00021 V=10.0 PL=1
MOVL C00022 V=10.0 FINE=2
DOUT OT#(9) OFF
TIMER T=2.00
MOVJ C00023 VJ=30.0
MOVJ C00024 VJ=30.0
MOVJ C00025 VJ=30.0
DOUT OT#(9) ON
TIMER T=2.00
MOVL C00026 V=10.0 FINE=2
MOVL C00027 V=10.0 PL=1
MOVL C00028 V=10.0 PL=1
MOVL C00029 V=10.0 PL=1
MOVL C00030 V=10.0 PL=1
MOVL C00031 V=10.0 PL=1
MOVL C00032 V=10.0 PL=1
MOVL C00033 V=10.0 PL=1
MOVL C00034 V=10.0 PL=1
MOVL C00035 V=10.0 PL=1
MOVL C00036 V=10.0 PL=1
MOVL C00037 V=10.0 PL=1
MOVL C00038 V=10.0 PL=1
MOVL C00039 V=10.0 PL=1
MOVL C00040 V=10.0 FINE=2
DOUT OT#(9) OFF
TIMER T=2.00
MOVJ C00041 VJ=30.0
DOUT OT#(9) OFF
MOVJ C00042 VJ=10.0
END
